icon/pk/briefcase.svg

<svg width="48" height="48" fill="none" xmlns="http://www.w3.org/2000/svg"><path d="M32 16c0-6.075-3.582-12-8-12s-8 5.925-8 12" stroke="#000" stroke-width="4" stroke-linecap="round" stroke-linejoin="round"/><path d="M9 16h30l1 12H27v-3h-6v3H8l1-12Z" fill="#2F88FF" stroke="#000" stroke-width="4" stroke-linecap="round" stroke-linejoin="round"/><path d="M8 28 6 42h36l-2-14" stroke="#000" stroke-width="4" stroke-linecap="round" stroke-linejoin="round"/><path d="M21 25h6v6h-6v-6Z" stroke="#000" stroke-width="4" stroke-linecap="round" stroke-linejoin="round"/></svg>

<svg viewBox="0 0 48 48" fill="none" xmlns="http://www.w3.org/2000/svg" height="1em" width="1em">
  <path d="M32 16C32 9.92487 28.4183 4 24 4C19.5817 4 16 9.92487 16 16" stroke="black" stroke-width="4" stroke-linecap="round" stroke-linejoin="round"/>
  <path d="M9 16H39L40 28H27V25H21V28H8L9 16Z" fill="#2F88FF" stroke="black" stroke-width="4" stroke-linecap="round" stroke-linejoin="round"/>
  <path d="M8 28L6 42H42L40 28" stroke="black" stroke-width="4" stroke-linecap="round" stroke-linejoin="round"/>
  <path d="M21 25H27V31H21V25Z" stroke="black" stroke-width="4" stroke-linecap="round" stroke-linejoin="round"/>
</svg>
